lib/flags/ug-uganda.svg

<svg xmlns="http://www.w3.org/2000/svg" fill="none" aria-hidden="true" viewBox="0 0 42 30"><g id="Country=UG - Uganda, Size=sm (36x24)" filter="url(#filter0_dd_91_24351)"><g clip-path="url(#clip0_91_24351)"><g id="flag"><mask id="mask0_91_24351" width="36" height="24" x="3" y="2" maskUnits="userSpaceOnUse" style="mask-type:alpha"><rect id="mask" width="36" height="24" x="3" y="2" fill="white"/></mask><g mask="url(#mask0_91_24351)"><g id="contents"><path id="background" fill="#FECA00" fill-rule="evenodd" d="M3 2V26H39V2H3Z" clip-rule="evenodd"/><mask id="mask1_91_24351" width="36" height="24" x="3" y="2" maskUnits="userSpaceOnUse" style="mask-type:alpha"><path id="background_2" fill="white" fill-rule="evenodd" d="M3 2V26H39V2H3Z" clip-rule="evenodd"/></mask><g mask="url(#mask1_91_24351)"><rect id="Rectangle 85" width="36" height="4" x="3" y="2" fill="#272727"/><rect id="Rectangle 85_2" width="36" height="4" x="3" y="10" fill="#D74800"/><rect id="Rectangle 85_3" width="36" height="4" x="3" y="14" fill="#272727"/><rect id="Rectangle 85_4" width="36" height="4" x="3" y="22" fill="#D74800"/><path id="Oval 15" fill="#F7FCFF" fill-rule="evenodd" d="M21 20C24.7279 20 27.75 17.3137 27.75 14C27.75 10.6863 24.7279 8 21 8C17.2721 8 14.25 10.6863 14.25 14C14.25 17.3137 17.2721 20 21 20Z" clip-rule="evenodd"/><g id="mark"><path id="Combined Shape" fill="#272727" fill-rule="evenodd" d="M18.3895 10.3286L17.1993 10.6758L18.3895 10.7664C18.3895 10.7664 18.582 11.1847 18.3895 11.5113C18.3407 11.5942 18.2147 11.7004 18.0538 11.836C17.5811 12.2345 16.8074 12.8867 16.8074 13.9462C16.8074 15.3663 19.8905 16.0102 19.8905 16.0102V16.6849C19.8905 16.6849 20.2484 16.8824 18.2067 16.8824C16.4362 16.8824 16.5469 17.4799 16.6075 17.8069C16.6168 17.857 16.6249 17.9008 16.6249 17.935C16.6249 18.1933 17.4759 17.6768 17.8743 17.1626C18.084 16.892 18.9621 16.9063 19.8634 16.9805C19.9345 16.9864 20.5916 18.2237 20.0212 18.8629C19.7815 19.1314 18.9539 19.1664 18.4368 19.1883C18.1731 19.1994 17.9902 19.2071 18.0072 19.2407C18.0199 19.2658 18.1758 19.2576 18.4025 19.2455C18.6854 19.2305 19.0784 19.2097 19.4407 19.2407C19.4957 19.2454 19.2825 19.4099 19.0669 19.5762C18.8449 19.7475 18.6204 19.9207 18.6836 19.9234C18.7547 19.9263 19.1705 19.7216 19.5482 19.5356C19.8607 19.3817 20.1472 19.2407 20.1909 19.2407C20.4759 19.2407 20.7333 19.2719 20.959 19.2994C21.3364 19.3452 21.6253 19.3803 21.8072 19.2407C21.8632 19.1977 21.5385 19.1285 21.2073 19.058C20.8662 18.9854 20.5183 18.9113 20.5731 18.8629C20.8867 18.5863 20.7557 18.0064 20.6525 17.5498C20.6062 17.3449 20.5655 17.1648 20.5731 17.048C20.5999 16.6332 21.0935 16.8508 21.4814 17.0218C21.6513 17.0967 21.8009 17.1626 21.8822 17.1626C22.6168 17.1626 21.7046 16.3367 21.204 15.8834C21.1601 15.8437 21.1194 15.8068 21.0832 15.7736C20.8286 15.5399 21.0072 15.5713 21.4109 15.6423C21.7189 15.6964 22.1581 15.7736 22.6357 15.7736C23.7393 15.7736 24.5448 15.4549 24.265 14.592C24.0804 14.0227 23.0696 13.829 22.0136 13.6266C21.469 13.5222 20.9123 13.4155 20.4507 13.2538C19.3151 12.8559 19.373 12.2758 19.422 11.7853C19.4315 11.6899 19.4407 11.5979 19.4407 11.5113C19.4407 10.9793 20.4507 10.3286 20.4507 10.3286C20.4507 10.3286 19.9898 9.64209 19.2254 9.64209C18.4609 9.64209 18.3895 10.3286 18.3895 10.3286ZM20.4688 16.5765V16.0747C20.4688 16.0747 20.9408 16.0609 21.1064 16.4139C21.2719 16.7668 20.4688 16.5765 20.4688 16.5765Z" clip-rule="evenodd"/><path id="Path 339" fill="#D74800" fill-rule="evenodd" d="M17.7114 8.71153L18.8517 9.91347L19.4422 9.79001L19.159 8.57666L17.7114 8.71153Z" clip-rule="evenodd"/><path id="Path 339_2" fill="#FFD018" fill-rule="evenodd" d="M19.192 8.42076L19.2655 10.2278L20.2392 10.0149L20.6538 8.83134L19.192 8.42076Z" clip-rule="evenodd"/><path id="Oval 60" fill="#D74800" fill-rule="evenodd" d="M18.2742 11.4392C18.4893 11.4392 18.6636 11.2881 18.6636 11.1017C18.6636 10.9153 18.4893 10.7642 18.2742 10.7642C18.0591 10.7642 17.8848 10.9153 17.8848 11.1017C17.8848 11.2881 18.0591 11.4392 18.2742 11.4392Z" clip-rule="evenodd"/><path id="Path 339_3" fill="#D74800" fill-rule="evenodd" d="M20.7485 8.75926L19.6149 9.96614L19.8542 10.4616L21.1493 10.003L20.7485 8.75926Z" clip-rule="evenodd"/><path id="Path 338" fill="#D74800" fill-rule="evenodd" d="M23.3837 17.8932C23.3837 17.8932 25.3777 17.1014 25.3777 15.9941C25.3777 14.8868 22.1399 13.6807 22.1399 13.6807C22.1399 13.6807 20.2354 14.0681 21.0939 14.5866C21.9523 15.1051 23.1024 15.3043 23.1024 15.9941C23.1024 16.6839 23.4175 17.3417 22.7787 17.3417C22.1399 17.3417 23.3837 17.8932 23.3837 17.8932Z" clip-rule="evenodd"/><path id="Path 338_2" fill="#FFFDFF" fill-rule="evenodd" d="M20.5068 13.4785C20.5068 13.4785 19.8015 13.5886 19.835 13.6905C19.9276 13.9719 20.8919 14.3385 21.3121 14.5924C22.1706 15.1109 22.9845 15.0526 23.59 14.7152C24.1954 14.3778 20.5068 13.4785 20.5068 13.4785Z" clip-rule="evenodd"/></g></g></g></g></g></g></g><defs><filter id="filter0_dd_91_24351" width="42" height="30" x="0" y="0" color-interpolation-filters="sRGB" filterUnits="userSpaceOnUse"><feFlood flood-opacity="0" result="BackgroundImageFix"/><feColorMatrix in="SourceAlpha" result="hardAlpha" values="0 0 0 0 0 0 0 0 0 0 0 0 0 0 0 0 0 0 127 0"/><feOffset dy="1"/><feGaussianBlur stdDeviation="1"/><feColorMatrix values="0 0 0 0 0.0627451 0 0 0 0 0.0941176 0 0 0 0 0.156863 0 0 0 0.06 0"/><feBlend in2="BackgroundImageFix" result="effect1_dropShadow_91_24351"/><feColorMatrix in="SourceAlpha" result="hardAlpha" values="0 0 0 0 0 0 0 0 0 0 0 0 0 0 0 0 0 0 127 0"/><feOffset dy="1"/><feGaussianBlur stdDeviation="1.5"/><feColorMatrix values="0 0 0 0 0.0627451 0 0 0 0 0.0941176 0 0 0 0 0.156863 0 0 0 0.1 0"/><feBlend in2="effect1_dropShadow_91_24351" result="effect2_dropShadow_91_24351"/><feBlend in="SourceGraphic" in2="effect2_dropShadow_91_24351" result="shape"/></filter><clipPath id="clip0_91_24351"><rect width="36" height="24" x="3" y="2" fill="white" rx="2"/></clipPath></defs></svg>

<svg xmlns="http://www.w3.org/2000/svg" fill="none" aria-hidden="true" viewBox="0 0 42 30"><g filter="url(#a)"><g clip-path="url(#b)"><mask id="c" width="36" height="24" x="3" y="2" maskUnits="userSpaceOnUse" style="mask-type:alpha"><path fill="#fff" d="M3 2h36v24H3z"/></mask><g mask="url(#c)"><path fill="#FECA00" fill-rule="evenodd" d="M3 2v24h36V2H3Z" clip-rule="evenodd"/><mask id="d" width="36" height="24" x="3" y="2" maskUnits="userSpaceOnUse" style="mask-type:alpha"><path fill="#fff" fill-rule="evenodd" d="M3 2v24h36V2H3Z" clip-rule="evenodd"/></mask><g mask="url(#d)"><path fill="#272727" d="M3 2h36v4H3z"/><path fill="#D74800" d="M3 10h36v4H3z"/><path fill="#272727" d="M3 14h36v4H3z"/><path fill="#D74800" d="M3 22h36v4H3z"/><path fill="#F7FCFF" fill-rule="evenodd" d="M21 20c3.728 0 6.75-2.686 6.75-6S24.728 8 21 8s-6.75 2.686-6.75 6 3.022 6 6.75 6Z" clip-rule="evenodd"/><g fill-rule="evenodd" clip-rule="evenodd"><path fill="#272727" d="m18.39 10.329-1.19.347 1.19.09s.192.419 0 .745c-.05.083-.175.19-.336.325-.473.399-1.247 1.05-1.247 2.11 0 1.42 3.084 2.064 3.084 2.064v.675s.357.197-1.684.197c-1.77 0-1.66.598-1.6.925a.72.72 0 0 1 .018.128c0 .258.85-.258 1.25-.772.209-.271 1.087-.257 1.988-.183.072.006.729 1.244.158 1.883-.24.268-1.067.303-1.584.325-.264.011-.447.02-.43.053.013.025.169.017.395.005a7.732 7.732 0 0 1 1.039-.005c.055.004-.159.169-.374.335-.222.171-.447.345-.383.347.07.003.486-.201.864-.387.313-.154.6-.295.643-.295.285 0 .542.03.768.058.377.046.666.081.848-.058.056-.043-.268-.113-.6-.183-.34-.073-.689-.147-.634-.195.314-.277.183-.857.08-1.313-.047-.205-.087-.385-.08-.502.027-.415.52-.197.908-.026.17.075.32.14.401.14.735 0-.177-.825-.678-1.279-.044-.04-.085-.076-.12-.11-.255-.233-.077-.202.327-.13.308.053.747.13 1.225.13 1.103 0 1.909-.318 1.629-1.181-.185-.57-1.195-.763-2.251-.965-.545-.105-1.102-.212-1.563-.373-1.136-.398-1.078-.978-1.029-1.469.01-.095.019-.187.019-.274 0-.532 1.01-1.182 1.01-1.182s-.461-.687-1.226-.687a.791.791 0 0 0-.835.687Zm2.079 6.247v-.501s.472-.014.637.339c.166.353-.637.162-.637.162Z"/><path fill="#D74800" d="m17.711 8.712 1.14 1.201.591-.123-.283-1.213-1.448.135Z"/><path fill="#FFD018" d="m19.192 8.42.073 1.808.974-.213.415-1.184-1.462-.41Z"/><path fill="#D74800" d="M18.274 11.44c.215 0 .39-.152.39-.338 0-.187-.175-.338-.39-.338-.215 0-.39.151-.39.338 0 .186.175.337.39.337Zm2.474-2.68-1.133 1.206.24.496 1.294-.459-.4-1.244Zm2.636 9.133s1.994-.792 1.994-1.899-3.238-2.313-3.238-2.313-1.905.387-1.046.906c.858.518 2.008.717 2.008 1.407 0 .69.316 1.348-.323 1.348-.64 0 .605.551.605.551Z"/><path fill="#FFFDFF" d="M20.507 13.479s-.706.11-.672.212c.093.28 1.057.647 1.477.901.859.519 1.672.46 2.278.123.605-.337-3.083-1.236-3.083-1.236Z"/></g></g></g></g></g><defs><clipPath id="b"><rect width="36" height="24" x="3" y="2" fill="#fff" rx="2"/></clipPath><filter id="a" width="42" height="30" x="0" y="0" color-interpolation-filters="sRGB" filterUnits="userSpaceOnUse"><feFlood flood-opacity="0" result="BackgroundImageFix"/><feColorMatrix in="SourceAlpha" result="hardAlpha" values="0 0 0 0 0 0 0 0 0 0 0 0 0 0 0 0 0 0 127 0"/><feOffset dy="1"/><feGaussianBlur stdDeviation="1"/><feColorMatrix values="0 0 0 0 0.0627451 0 0 0 0 0.0941176 0 0 0 0 0.156863 0 0 0 0.06 0"/><feBlend in2="BackgroundImageFix" result="effect1_dropShadow_91_24351"/><feColorMatrix in="SourceAlpha" result="hardAlpha" values="0 0 0 0 0 0 0 0 0 0 0 0 0 0 0 0 0 0 127 0"/><feOffset dy="1"/><feGaussianBlur stdDeviation="1.5"/><feColorMatrix values="0 0 0 0 0.0627451 0 0 0 0 0.0941176 0 0 0 0 0.156863 0 0 0 0.1 0"/><feBlend in2="effect1_dropShadow_91_24351" result="effect2_dropShadow_91_24351"/><feBlend in="SourceGraphic" in2="effect2_dropShadow_91_24351" result="shape"/></filter></defs></svg>
